Costumes/dove2-a.svg

<?xml version="1.0" encoding="UTF-8" standalone="no"?>
<svg
   version="1.1"
   width="158.87669"
   height="81.330528"
   id="svg15"
   sodipodi:docname="dove2-a.svg"
   xmlns:inkscape="http://www.inkscape.org/namespaces/inkscape"
   xmlns:sodipodi="http://sodipodi.sourceforge.net/DTD/sodipodi-0.dtd"
   xmlns="http://www.w3.org/2000/svg"
   xmlns:svg="http://www.w3.org/2000/svg">
  <defs
     id="defs19" />
  <sodipodi:namedview
     id="namedview17"
     pagecolor="#ffffff"
     bordercolor="#000000"
     borderopacity="0.25"
     inkscape:showpageshadow="2"
     inkscape:pageopacity="0.0"
     inkscape:pagecheckerboard="0"
     inkscape:deskcolor="#d1d1d1" />
  <!-- Exported by Scratch - http://scratch.mit.edu/ -->
  <g
     id="ID0.5409370576962829"
     transform="matrix(0.90249997,0,0,0.90249997,-0.71315422,-0.49508877)">
    <g
       id="ID0.2628525043837726">
      <path
         id="ID0.25445642974227667"
         fill="none"
         stroke="#7f6038"
         stroke-width="2"
         stroke-linecap="round"
         d="m 261.5,128.5 c 0,0 4.407,0.622 6,2 4.727,4.088 7.842,9.833 12.5,14 1.777,1.59 4.127,2.769 6.5,3 4.652,0.454 14,-1 14,-1"
         transform="matrix(0.85737497,0,0,0.85737497,-97.15,-76.55)" />
      <path
         id="ID0.4503647689707577"
         fill="#68a54d"
         stroke="none"
         stroke-linecap="round"
         d="m 310,129 c 1.29,-0.031 3.321,-0.438 4,0 0.391,0.273 -1.094,0.606 -1.5,1.25 -2.119,2.664 -3.194,6.269 -5.75,8.25 -2.351,1.822 -5.521,1.717 -8.5,2.75 -0.856,0.296 -2.473,1.942 -2.5,1 -0.052,-3.364 0.881,-7.056 2.5,-10.125 0.956,-1.803 3.266,-2.774 5.25,-3.375 1.957,-0.587 4.331,0.299 6.5,0.25 z"
         transform="matrix(0.85737497,0,0,0.85737497,-100.55,-73.15)" />
      <path
         id="path4"
         fill="#68a54d"
         stroke="none"
         stroke-linecap="round"
         d="m 310,129 c 1.29,-0.031 3.321,-0.438 4,0 0.391,0.273 -1.094,0.606 -1.5,1.25 -2.119,2.664 -3.194,6.269 -5.75,8.25 -2.351,1.822 -5.521,1.717 -8.5,2.75 -0.856,0.296 -2.473,1.942 -2.5,1 -0.052,-3.364 0.881,-7.056 2.5,-10.125 0.956,-1.803 3.266,-2.774 5.25,-3.375 1.957,-0.587 4.331,0.299 6.5,0.25 z"
         transform="matrix(0.85737497,0,0,-0.94923651,-105.55,185.8)" />
      <path
         id="path6"
         fill="#68a54d"
         stroke="none"
         stroke-linecap="round"
         d="m 310,129 c 1.29,-0.031 3.321,-0.438 4,0 0.391,0.273 -1.094,0.606 -1.5,1.25 -2.119,2.664 -3.194,6.269 -5.75,8.25 -2.351,1.822 -5.521,1.717 -8.5,2.75 -0.856,0.296 -2.473,1.942 -2.5,1 -0.052,-3.364 0.881,-7.056 2.5,-10.125 0.956,-1.803 3.266,-2.774 5.25,-3.375 1.957,-0.587 4.331,0.299 6.5,0.25 z"
         transform="matrix(0.6207031,-0.59145534,-0.65482551,-0.68720698,66.4,322.3)" />
    </g>
    <g
       id="ID0.06238114042207599">
      <path
         id="ID0.7277892976999283"
         fill="#d0e7f0"
         stroke="none"
         stroke-linecap="round"
         d="m 270.75,106 c 5.846,2.245 8.248,8.981 10.5,14.5 1.633,4.008 0.111,8.176 0.5,12 0.944,9.506 8.163,21.502 3.5,28 -3.439,4.767 -13.367,-2.522 -19.5,-4.5 -7.031,-2.272 -16.237,-2.155 -20.677,-8.06 -8.455,-11.241 -7.537,-27.85 -15.823,-39.44 -5.383,-7.683 -29.698,-15.622 -23.5,-16 13.101,-0.804 44.358,5.592 65,13.5 z"
         transform="matrix(0.85737497,0,0,0.85737497,-133.15,-78.7)" />
      <path
         id="ID0.9655266357585788"
         fill="#ffffff"
         stroke="none"
         stroke-linecap="round"
         d="m 240.25,149.5 c 7.803,-3.609 11.289,-14.394 19.5,-17 8.629,-2.736 20.914,-0.169 27.5,2.5 2.414,0.831 -7.875,1.483 -9.5,4.5 -5.012,9.32 -4.661,20.972 -9.75,30.25 -3.397,6.195 -9.114,11.005 -15.25,14.25 -6.784,4.027 -14.654,6.656 -22.5,7 -11.784,0.521 -23.707,-2.148 -35.221,-3.754 -12.769,-1.786 -25.514,-5.264 -38.279,-5.746 -5.733,-0.277 -12.164,7.066 -16.5,3.5 -6.466,-5.324 -7.803,-15.933 -9,-24.5 -0.271,-2.17 3.524,-2.373 5.5,-2 7.461,2.248 13.766,8.257 21.5,9.5 5.028,0.807 9.966,-1.909 15,-3 7.818,-1.694 15.95,-3.225 23.5,-5 14.508,-3.394 29.776,-4.712 43.5,-10.5 z"
         transform="matrix(0.85737497,0,0,0.85737497,-100.55,-73.15)" />
      <path
         id="ID0.8111862246878445"
         fill="#ffffff"
         stroke="none"
         stroke-linecap="round"
         d="m 202.75,107.5 c 7.187,1.649 13.543,6.737 18,12 3.848,4.56 4.198,11.263 7,16.5 3.811,7.127 17.038,15.177 13,20.5 -5.573,7.319 -21.131,6.986 -31.75,5.5 -7.281,-1.025 -12.823,-7.879 -18.25,-13 -5.085,-4.803 -7.764,-11.641 -13,-16.5 -6.572,-6.09 -13.858,-11.77 -22,-15.5 -11.923,-5.207 -36.25,-8.467 -37.5,-11 -1.245,-2.529 20.279,-3.696 30.5,-3.5 18.4,0.354 36.588,0.84 54,5 z"
         transform="matrix(0.85737497,0,0,0.85737497,-100.55,-73.15)" />
      <path
         id="ID0.29294770350679755"
         fill="#d0e7f0"
         stroke="none"
         stroke-linecap="round"
         d="m 196.75,117.5 c 2.255,0.352 4.865,0.784 6.539,2.052 1.675,1.267 1.631,3.411 2.711,4.948 3.304,4.69 9.889,10.537 11.25,14.5 0.594,1.733 -5.361,-1.112 -7.5,-2.5 -4.166,-3.383 -6.956,-8.158 -11,-11.5 -2.07,-1.709 -4.693,-2.987 -7,-4 -5.775,-2.531 -18.762,-5.507 -18,-6 0.771,-0.496 15.8,1.372 23,2.5 z"
         transform="matrix(0.85737497,0,0,0.85737497,-100.55,-73.15)" />
    </g>
  </g>
</svg>

<svg version="1.1" width="178" height="91" xmlns="http://www.w3.org/2000/svg" xmlns:xlink="http://www.w3.org/1999/xlink">
  <!-- Exported by Scratch - http://scratch.mit.edu/ -->
  <g id="ID0.5409370576962829" transform="matrix(0.9024999737739563, 0, 0, 0.9024999737739563, -0.4, 0.45)">
    <g id="ID0.2628525043837726">
      <path id="ID0.25445642974227667" fill="none" stroke="#7F6038" stroke-width="2" stroke-linecap="round" d="M 261.500 128.500 C 261.500 128.500 265.907 129.122 267.500 130.500 C 272.227 134.588 275.342 140.333 280 144.500 C 281.777 146.090 284.127 147.269 286.500 147.500 C 291.152 147.954 300.500 146.500 300.500 146.500 " transform="matrix(0.8573749661445618, 0, 0, 0.8573749661445618, -97.15, -76.55)"/>
      <path id="ID0.4503647689707577" fill="#68A54D" stroke="none" stroke-linecap="round" d="M 310 129 C 311.290 128.969 313.321 128.562 314 129 C 314.391 129.273 312.906 129.606 312.500 130.250 C 310.381 132.914 309.306 136.519 306.750 138.500 C 304.399 140.322 301.229 140.217 298.250 141.250 C 297.394 141.546 295.777 143.192 295.750 142.250 C 295.698 138.886 296.631 135.194 298.250 132.125 C 299.206 130.322 301.516 129.351 303.500 128.750 C 305.457 128.163 307.831 129.049 310 129 Z " transform="matrix(0.8573749661445618, 0, 0, 0.8573749661445618, -100.55, -73.15)"/>
      <path id="ID0.4503647689707577" fill="#68A54D" stroke="none" stroke-linecap="round" d="M 310 129 C 311.290 128.969 313.321 128.562 314 129 C 314.391 129.273 312.906 129.606 312.500 130.250 C 310.381 132.914 309.306 136.519 306.750 138.500 C 304.399 140.322 301.229 140.217 298.250 141.250 C 297.394 141.546 295.777 143.192 295.750 142.250 C 295.698 138.886 296.631 135.194 298.250 132.125 C 299.206 130.322 301.516 129.351 303.500 128.750 C 305.457 128.163 307.831 129.049 310 129 Z " transform="matrix(0.8573749661445618, 0, 0, -0.9492365121841431, -105.55, 185.8)"/>
      <path id="ID0.4503647689707577" fill="#68A54D" stroke="none" stroke-linecap="round" d="M 310 129 C 311.290 128.969 313.321 128.562 314 129 C 314.391 129.273 312.906 129.606 312.500 130.250 C 310.381 132.914 309.306 136.519 306.750 138.500 C 304.399 140.322 301.229 140.217 298.250 141.250 C 297.394 141.546 295.777 143.192 295.750 142.250 C 295.698 138.886 296.631 135.194 298.250 132.125 C 299.206 130.322 301.516 129.351 303.500 128.750 C 305.457 128.163 307.831 129.049 310 129 Z " transform="matrix(0.6207031011581421, -0.591455340385437, -0.6548255085945129, -0.6872069835662842, 66.4, 322.3)"/>
    </g>
    <g id="ID0.06238114042207599">
      <path id="ID0.7277892976999283" fill="#D0E7F0" stroke="none" stroke-linecap="round" d="M 270.750 106 C 276.596 108.245 278.998 114.981 281.250 120.500 C 282.883 124.508 281.361 128.676 281.750 132.500 C 282.694 142.006 289.913 154.002 285.250 160.500 C 281.811 165.267 271.883 157.978 265.750 156 C 258.719 153.728 249.513 153.845 245.073 147.940 C 236.618 136.699 237.536 120.090 229.250 108.500 C 223.867 100.817 199.552 92.878 205.750 92.500 C 218.851 91.696 250.108 98.092 270.750 106 Z " transform="matrix(0.8573749661445618, 0, 0, 0.8573749661445618, -133.15, -78.7)"/>
      <path id="ID0.9655266357585788" fill="#FFFFFF" stroke="none" stroke-linecap="round" d="M 240.250 149.500 C 248.053 145.891 251.539 135.106 259.750 132.500 C 268.379 129.764 280.664 132.331 287.250 135 C 289.664 135.831 279.375 136.483 277.750 139.500 C 272.738 148.820 273.089 160.472 268 169.750 C 264.603 175.945 258.886 180.755 252.750 184 C 245.966 188.027 238.096 190.656 230.250 191 C 218.466 191.521 206.543 188.852 195.029 187.246 C 182.260 185.460 169.515 181.982 156.750 181.500 C 151.017 181.223 144.586 188.566 140.250 185 C 133.784 179.676 132.447 169.067 131.250 160.500 C 130.979 158.330 134.774 158.127 136.750 158.500 C 144.211 160.748 150.516 166.757 158.250 168 C 163.278 168.807 168.216 166.091 173.250 165 C 181.068 163.306 189.200 161.775 196.750 160 C 211.258 156.606 226.526 155.288 240.250 149.500 Z " transform="matrix(0.8573749661445618, 0, 0, 0.8573749661445618, -100.55, -73.15)"/>
      <path id="ID0.8111862246878445" fill="#FFFFFF" stroke="none" stroke-linecap="round" d="M 202.750 107.500 C 209.937 109.149 216.293 114.237 220.750 119.500 C 224.598 124.060 224.948 130.763 227.750 136 C 231.561 143.127 244.788 151.177 240.750 156.500 C 235.177 163.819 219.619 163.486 209 162 C 201.719 160.975 196.177 154.121 190.750 149 C 185.665 144.197 182.986 137.359 177.750 132.500 C 171.178 126.410 163.892 120.730 155.750 117 C 143.827 111.793 119.500 108.533 118.250 106 C 117.005 103.471 138.529 102.304 148.750 102.500 C 167.150 102.854 185.338 103.340 202.750 107.500 Z " transform="matrix(0.8573749661445618, 0, 0, 0.8573749661445618, -100.55, -73.15)"/>
      <path id="ID0.29294770350679755" fill="#D0E7F0" stroke="none" stroke-linecap="round" d="M 196.750 117.500 C 199.005 117.852 201.615 118.284 203.289 119.552 C 204.964 120.819 204.920 122.963 206 124.500 C 209.304 129.190 215.889 135.037 217.250 139 C 217.844 140.733 211.889 137.888 209.750 136.500 C 205.584 133.117 202.794 128.342 198.750 125 C 196.680 123.291 194.057 122.013 191.750 121 C 185.975 118.469 172.988 115.493 173.750 115 C 174.521 114.504 189.550 116.372 196.750 117.500 Z " transform="matrix(0.8573749661445618, 0, 0, 0.8573749661445618, -100.55, -73.15)"/>
    </g>
  </g>
</svg>
